src/files/icons/svg/exit.svg

<?xml version="1.0" encoding="utf-8"?>
<!-- Generated by IcoMoon.io -->
<!DOCTYPE svg PUBLIC "-//W3C//DTD SVG 1.1//EN" "http://www.w3.org/Graphics/SVG/1.1/DTD/svg11.dtd">
<svg version="1.1" xmlns="http://www.w3.org/2000/svg" xmlns:xlink="http://www.w3.org/1999/xlink" width="16" height="16" viewBox="0 0 16 16">
<g id="icomoon-ignore">
	<line stroke-width="1" x1="" y1="" x2="" y2="" stroke="#449FDB" opacity=""></line>
</g>
	<path d="M12 10v-2h-5v-2h5v-2l3 3zM11 9v4h-5v3l-6-3v-13h11v5h-1v-4h-8l4 2v9h4v-3z" fill="#ffffff"></path>
</svg>

<?xml version="1.0" standalone="no"?>
<!-- Generator: Adobe Fireworks 10, Export SVG Extension by Aaron Beall (http://fireworks.abeall.com) . Version: 0.6.1  -->
<!DOCTYPE svg PUBLIC "-//W3C//DTD SVG 1.1//EN" "http://www.w3.org/Graphics/SVG/1.1/DTD/svg11.dtd">
<svg id="Icons.fw-exit" viewBox="0 0 15 16" style="background-color:#ffffff00" version="1.1"
	xmlns="http://www.w3.org/2000/svg" xmlns:xlink="http://www.w3.org/1999/xlink" xml:space="preserve"
	x="0px" y="0px" width="15px" height="16px"
>
	<path id="base" d="M 12 10 L 12 8 L 7 8 L 7 6 L 12 6 L 12 4 L 15 7 L 12 10 ZM 11 9 L 11 13 L 6 13 L 6 16 L 0 13 L 0 0 L 11 0 L 11 5 L 10 5 L 10 1 L 2 1 L 6 3 L 6 12 L 10 12 L 10 9 L 11 9 Z" fill="#ffffff"/>
</svg>
